X: 26009
T: Mazurca De Comptoir
R: mazurka
M: 3/4
K: Cmajor
AB c2 cG|cd e2 ed|ef ed cB|AB (3ABA GG|
AB cG cG|cd eG ed|ef e<d c<B|AB c3:|
A<G B2 BG|A<G B2 BG|A<G f<e d<c|BA (3ABA GG|
A<G B2 BG|A<G B2 BG|A<G f<e d<c|AB c3:|

